src/hbcore/resources/themes/icons/hbdefault/scalable/qtg_status_new_email.svg

<?xml version="1.0" encoding="UTF-8" standalone="no"?>
<!DOCTYPE svg PUBLIC "-//W3C//DTD SVG 1.1 Tiny//EN" "http://www.w3.org/Graphics/SVG/1.1/DTD/svg11-tiny.dtd">
<svg xmlns="http://www.w3.org/2000/svg" xmlns:xlink="http://www.w3.org/1999/xlink" baseProfile="tiny" height="16px" version="1.1" viewBox="0 0 16 16" width="16px" x="0px" y="0px">
<rect fill="none" height="16" width="16"/>
<path d="M12.31,9.615c0,1.484-1.208,2.692-2.692,2.692s-2.695-1.21-2.695-2.695v-2.154h3.77l-4.844-6.461-4.846,6.461h3.231v2.154c0,2.965,2.423,5.385,5.384,5.385,2.965,0,5.385-2.42,5.385-5.385h-2.692z" display="none"/>
<path d="M15,7.988c0,1.123-0.225,2.095-0.676,2.915-0.547,1.01-1.339,1.519-2.376,1.519-1.005,0-1.731-0.509-2.186-1.519-0.54,0.59-1.244,0.89-2.108,0.89-1.016,0-1.828-0.39-2.442-1.164-0.568-0.72-0.853-1.592-0.853-2.627,0-1.042,0.284-1.912,0.853-2.612,0.606-0.755,1.421-1.13,2.442-1.13,0.76,0,1.358,0.206,1.796,0.62v-0.461h1.476v5.097c0,0.988,0.344,1.482,1.032,1.482,0.561,0,0.994-0.388,1.297-1.162,0.223-0.577,0.335-1.191,0.335-1.85,0-1.522-0.55-2.822-1.644-3.903-1.1-1.085-2.41-1.623-3.94-1.623-1.539,0-2.846,0.536-3.921,1.61-1.076,1.076-1.616,2.379-1.616,3.916,0,1.536,0.539,2.846,1.622,3.925,1.079,1.088,2.385,1.626,3.916,1.626v1.46c-1.93,0-3.58-0.687-4.947-2.057-1.368-1.376-2.053-3.027-2.053-4.954,0-1.918,0.686-3.564,2.058-4.935,1.371-1.365,3.016-2.051,4.941-2.051,1.93,0,3.579,0.682,4.948,2.05,1.36,1.364,2.05,3.01,2.05,4.938zm-5.647-0.056c0-1.49-0.568-2.236-1.707-2.236-0.57,0-1.013,0.254-1.32,0.762-0.269,0.43-0.399,0.941-0.399,1.541,0,1.567,0.572,2.349,1.718,2.349,1.139,0,1.708-0.808,1.708-2.418z"/>
</svg>

<?xml version="1.0" encoding="UTF-8"?>
<!DOCTYPE svg PUBLIC "-//W3C//DTD SVG 1.1 Tiny//EN" "http://www.w3.org/Graphics/SVG/1.1/DTD/svg11-tiny.dtd">
<svg baseProfile="tiny" height="16px" version="1.1" viewBox="0 0 16 16" width="16px" x="0px" xmlns="http://www.w3.org/2000/svg" xmlns:xlink="http://www.w3.org/1999/xlink" y="0px">
<rect fill="none" height="16" width="16"/>
<path d="M12.308,9.615c0,1.484-1.208,2.692-2.692,2.692S6.923,11.1,6.923,9.615V7.461h3.77L5.846,1L1,7.461h3.231  v2.154C4.231,12.577,6.654,15,9.615,15C12.577,15,15,12.577,15,9.615H12.308z" display="none"/>
<path d="M14.999,7.988c0,1.123-0.225,2.095-0.676,2.915c-0.547,1.01-1.339,1.519-2.376,1.519c-1.005,0-1.731-0.509-2.186-1.519  C9.214,11.493,8.51,11.79,7.646,11.79c-1.016,0-1.828-0.39-2.442-1.164c-0.568-0.72-0.853-1.592-0.853-2.627  c0-1.042,0.284-1.912,0.853-2.612c0.606-0.755,1.421-1.13,2.442-1.13c0.76,0,1.358,0.206,1.796,0.62V4.42h1.476v5.097  c0,0.988,0.344,1.482,1.032,1.482c0.561,0,0.994-0.388,1.297-1.162c0.223-0.577,0.335-1.191,0.335-1.85  c0-1.522-0.55-2.822-1.644-3.903C10.844,3,9.53,2.462,8,2.462c-1.539,0-2.846,0.536-3.921,1.61C3.003,5.148,2.463,6.451,2.463,7.988  c0,1.536,0.539,2.846,1.622,3.925c1.079,1.088,2.385,1.626,3.916,1.626V15c-1.93,0-3.58-0.687-4.947-2.057  c-1.368-1.376-2.053-3.027-2.053-4.954c0-1.918,0.686-3.564,2.058-4.935C4.43,1.686,6.075,1,8,1c1.93,0,3.579,0.682,4.948,2.05  C14.314,4.414,14.999,6.06,14.999,7.988z M9.353,7.932c0-1.49-0.568-2.236-1.707-2.236c-0.57,0-1.013,0.254-1.32,0.762  c-0.269,0.43-0.399,0.941-0.399,1.541c0,1.567,0.572,2.349,1.718,2.349C8.784,10.347,9.353,9.542,9.353,7.932z"/>
</svg>
